X:1029
L:1/8
M:4/4
K:D
 D2 FD ADFA | defd B3 c | dBBA dBBA | FADE FEEF | D2 FD ADFA | defd B3 c | dBBA FAdB | 
 AFEG FD D2 :| dcde fefg | afdf gfed | cdef gebe | gebe gfef | d2 de fefg | afdf gfed | 
 (3Bcdef gbag | fdec d2 de | fdec d2 de | fded B3 c | dBBA dBBA | FADE FE E2 | D2 DF ADFA | 
 dfed B3 c | dBBA FAdB | AFEG FD D2 :|

